views/1/public/assets/sber.svg

<svg fill="none" height="38" viewBox="0 0 38 38" width="38" xmlns="http://www.w3.org/2000/svg" xmlns:xlink="http://www.w3.org/1999/xlink"><linearGradient id="a" gradientUnits="userSpaceOnUse" x1="7.1811" x2="3.53408" y1="29.7899" y2="19.2647"><stop offset=".1444" stop-color="#f2e913"/><stop offset=".3037" stop-color="#e7e518"/><stop offset=".5823" stop-color="#cadb26"/><stop offset=".891" stop-color="#a3cd39"/></linearGradient><linearGradient id="b" gradientUnits="userSpaceOnUse" x1="8.56951" x2="17.8367" y1="7.97722" y2="4.45131"><stop offset=".0592" stop-color="#0fa8e0"/><stop offset=".5385" stop-color="#0099f9"/><stop offset=".9234" stop-color="#0291eb"/></linearGradient><linearGradient id="c" gradientUnits="userSpaceOnUse" x1="17.4799" x2="28.5251" y1="31.7237" y2="29.2313"><stop offset=".1226" stop-color="#a3cd39"/><stop offset=".2846" stop-color="#86c339"/><stop offset=".8693" stop-color="#21a038"/></linearGradient><linearGradient id="d" gradientUnits="userSpaceOnUse" x1="17.7512" x2="26.9365" y1="6.09932" y2="8.92887"><stop offset=".0566" stop-color="#0291eb"/><stop offset=".79" stop-color="#0c8acb"/></linearGradient><linearGradient id="e" gradientUnits="userSpaceOnUse" x1="7.90932" x2="17.7726" y1="30.254" y2="33.9334"><stop offset=".1324" stop-color="#f2e913"/><stop offset=".2977" stop-color="#ebe716"/><stop offset=".5306" stop-color="#d9e01f"/><stop offset=".8023" stop-color="#bbd62d"/><stop offset=".9829" stop-color="#a3cd39"/></linearGradient><linearGradient id="f" gradientUnits="userSpaceOnUse" x1="5.71902" x2="9.66275" y1="19.7381" y2="9.49541"><stop offset=".0698" stop-color="#a3cd39"/><stop offset=".2599" stop-color="#81c55f"/><stop offset=".9216" stop-color="#0fa8e0"/></linearGradient><path d="m30.7631 9.85425c.733.94525 1.3438 1.98205 1.863 3.07975l-14.1103 10.3981-5.9252-3.7201v-4.452l5.8946 3.6897z" fill="#21a038"/><path d="m6.5734 19.3075c0-.2135 0-.3964.03054-.6099l-3.5734-.183c0 .244-.03054.5184-.03054.7624 0 4.269 1.74089 8.1416 4.55074 10.9469l2.53496-2.5309c-2.16846-2.1345-3.5123-5.0923-3.5123-8.3855z" fill="url(#a)"/><path d="m18.4849 7.41508c.2138 0 .397.00001.6108.0305l.1833-3.56767c-.2444 0-.5192-.0305-.7636-.0305-4.2758 0-8.1546 1.7381-10.9645 4.54345l2.535 2.53094c2.1379-2.16503 5.131-3.50672 8.399-3.50672z" fill="url(#b)"/><path d="m18.4838 31.1993c-.2137 0-.397 0-.6108-.0305l-.1832 3.5677c.2443 0 .5192.0305.7635.0305 4.2759 0 8.1547-1.7381 10.9645-4.5435l-2.5349-2.5309c-2.138 2.1955-5.1005 3.5067-8.3991 3.5067z" fill="url(#c)"/><path d="m25.2046 9.48834 3.0236-2.22599c-2.6571-2.1345-6.0473-3.4457-9.7428-3.4457v3.56767c2.5044.0305 4.8256.79282 6.7192 2.10402z" fill="url(#d)"/><path d="m34.0001 19.3073c0-.9453-.0916-1.86-.2443-2.7748l-3.3291 2.4699v.3049c0 3.5067-1.5271 6.6475-3.9399 8.8125l2.4128 2.6529c3.1153-2.8054 5.1005-6.9219 5.1005-11.4654z" fill="#21a038"/><path d="m18.4845 31.1992c-3.5123 0-6.6582-1.5246-8.82662-3.9336l-2.65715 2.409c2.8404 3.1407 6.93297 5.0923 11.48377 5.0923z" fill="url(#e)"/><path d="m10.5133 10.4947-2.41281-2.6529c-3.14581 2.8358-5.10049 6.9219-5.10049 11.4653h3.5734c0-3.4762 1.52709-6.6474 3.9399-8.8124z" fill="url(#f)"/></svg>

<svg width="38" height="38" viewBox="0 0 38 38" fill="none" xmlns="http://www.w3.org/2000/svg">
<path d="M30.7631 9.85425C31.4961 10.7995 32.1069 11.8363 32.6261 12.934L18.5158 23.3321L12.5906 19.612V15.16L18.4852 18.8497L30.7631 9.85425Z" fill="#21A038"/>
<path d="M6.5734 19.3075C6.5734 19.094 6.5734 18.9111 6.60394 18.6976L3.03054 18.5146C3.03054 18.7586 3 19.033 3 19.277C3 23.546 4.74089 27.4186 7.55074 30.2239L10.0857 27.693C7.91724 25.5585 6.5734 22.6007 6.5734 19.3075Z" fill="url(#paint0_linear)"/>
<path d="M18.4849 7.41508C18.6987 7.41508 18.8819 7.41509 19.0957 7.44558L19.279 3.87791C19.0346 3.87791 18.7598 3.84741 18.5154 3.84741C14.2396 3.84741 10.3608 5.58551 7.5509 8.39086L10.0859 10.9218C12.2238 8.75677 15.2169 7.41508 18.4849 7.41508Z" fill="url(#paint1_linear)"/>
<path d="M18.4838 31.1993C18.2701 31.1993 18.0868 31.1993 17.873 31.1688L17.6898 34.7365C17.9341 34.7365 18.209 34.767 18.4533 34.767C22.7292 34.767 26.608 33.0289 29.4178 30.2235L26.8829 27.6926C24.7449 29.8881 21.7824 31.1993 18.4838 31.1993Z" fill="url(#paint2_linear)"/>
<path d="M25.2046 9.48834L28.2282 7.26235C25.5711 5.12785 22.1809 3.81665 18.4854 3.81665V7.38432C20.9898 7.41482 23.311 8.17714 25.2046 9.48834Z" fill="url(#paint3_linear)"/>
<path d="M34.0001 19.3073C34.0001 18.362 33.9085 17.4473 33.7558 16.5325L30.4267 19.0024C30.4267 19.0939 30.4267 19.2158 30.4267 19.3073C30.4267 22.814 28.8996 25.9548 26.4868 28.1198L28.8996 30.7727C32.0149 27.9673 34.0001 23.8508 34.0001 19.3073Z" fill="#21A038"/>
<path d="M18.4845 31.1992C14.9722 31.1992 11.8263 29.6746 9.65788 27.2656L7.00073 29.6746C9.84113 32.8153 13.9337 34.7669 18.4845 34.7669V31.1992Z" fill="url(#paint4_linear)"/>
<path d="M10.5133 10.4947L8.10049 7.8418C4.95468 10.6776 3 14.7637 3 19.3071H6.5734C6.5734 15.8309 8.10049 12.6597 10.5133 10.4947Z" fill="url(#paint5_linear)"/>
<defs>
<linearGradient id="paint0_linear" x1="7.1811" y1="29.7899" x2="3.53408" y2="19.2647" gradientUnits="userSpaceOnUse">
<stop offset="0.1444" stop-color="#F2E913"/>
<stop offset="0.3037" stop-color="#E7E518"/>
<stop offset="0.5823" stop-color="#CADB26"/>
<stop offset="0.891" stop-color="#A3CD39"/>
</linearGradient>
<linearGradient id="paint1_linear" x1="8.56951" y1="7.97722" x2="17.8367" y2="4.45131" gradientUnits="userSpaceOnUse">
<stop offset="0.0592" stop-color="#0FA8E0"/>
<stop offset="0.5385" stop-color="#0099F9"/>
<stop offset="0.9234" stop-color="#0291EB"/>
</linearGradient>
<linearGradient id="paint2_linear" x1="17.4799" y1="31.7237" x2="28.5251" y2="29.2313" gradientUnits="userSpaceOnUse">
<stop offset="0.1226" stop-color="#A3CD39"/>
<stop offset="0.2846" stop-color="#86C339"/>
<stop offset="0.8693" stop-color="#21A038"/>
</linearGradient>
<linearGradient id="paint3_linear" x1="17.7512" y1="6.09932" x2="26.9365" y2="8.92887" gradientUnits="userSpaceOnUse">
<stop offset="0.0566" stop-color="#0291EB"/>
<stop offset="0.79" stop-color="#0C8ACB"/>
</linearGradient>
<linearGradient id="paint4_linear" x1="7.90932" y1="30.254" x2="17.7726" y2="33.9334" gradientUnits="userSpaceOnUse">
<stop offset="0.1324" stop-color="#F2E913"/>
<stop offset="0.2977" stop-color="#EBE716"/>
<stop offset="0.5306" stop-color="#D9E01F"/>
<stop offset="0.8023" stop-color="#BBD62D"/>
<stop offset="0.9829" stop-color="#A3CD39"/>
</linearGradient>
<linearGradient id="paint5_linear" x1="5.71902" y1="19.7381" x2="9.66275" y2="9.49541" gradientUnits="userSpaceOnUse">
<stop offset="0.0698" stop-color="#A3CD39"/>
<stop offset="0.2599" stop-color="#81C55F"/>
<stop offset="0.9216" stop-color="#0FA8E0"/>
</linearGradient>
</defs>
</svg>
